polaris-icons/icons/SocialPostIcon.svg

<svg xmlns="http://www.w3.org/2000/svg" viewBox="0 0 20 20"><path d="M13.5 2.75C13.9142 2.75 14.25 3.08579 14.25 3.5V4.75C14.25 5.16421 13.9142 5.5 13.5 5.5C13.0858 5.5 12.75 5.16421 12.75 4.75V3.5C12.75 3.08579 13.0858 2.75 13.5 2.75Z"/>
<path d="M17.0303 4.78033C17.3232 4.48744 17.3232 4.01256 17.0303 3.71967C16.7374 3.42678 16.2626 3.42678 15.9697 3.71967L14.9697 4.71967C14.6768 5.01256 14.6768 5.48744 14.9697 5.78033C15.2626 6.07322 15.7374 6.07322 16.0303 5.78033L17.0303 4.78033Z"/>
<path d="M4 8.75C4 6.95507 5.45507 5.5 7.25 5.5H11.25C11.6642 5.5 12 5.16421 12 4.75C12 4.33579 11.6642 4 11.25 4H7.25C4.62665 4 2.5 6.12665 2.5 8.75V9.5C2.5 11.5997 3.86171 13.38 5.75 14.0081V16C5.75 16.2832 5.90957 16.5423 6.16252 16.6698C6.41547 16.7972 6.71864 16.7713 6.94628 16.6028L10.1241 14.25H11.75C14.3734 14.25 16.5 12.1234 16.5 9.5C16.5 9.08579 16.1642 8.75 15.75 8.75C15.3358 8.75 15 9.08579 15 9.5C15 11.2949 13.5449 12.75 11.75 12.75H9.87662C9.71593 12.75 9.55949 12.8016 9.43034 12.8972L7.25 14.5115V13.4298C7.25 13.0695 6.99378 12.7601 6.63978 12.6929C5.13655 12.4078 4 11.0858 4 9.5V8.75Z"/>
<path d="M6.75 7.25C6.33579 7.25 6 7.58579 6 8C6 8.41421 6.33579 8.75 6.75 8.75H12.25C12.6642 8.75 13 8.41421 13 8C13 7.58579 12.6642 7.25 12.25 7.25H6.75Z"/>
<path d="M6 10.25C6 9.83579 6.33579 9.5 6.75 9.5H10.25C10.6642 9.5 11 9.83579 11 10.25C11 10.6642 10.6642 11 10.25 11H6.75C6.33579 11 6 10.6642 6 10.25Z"/>
<path d="M17 8C17.4142 8 17.75 7.66421 17.75 7.25C17.75 6.83579 17.4142 6.5 17 6.5H15.75C15.3358 6.5 15 6.83579 15 7.25C15 7.66421 15.3358 8 15.75 8H17Z"/>
</svg>

<svg xmlns="http://www.w3.org/2000/svg" viewBox="0 0 20 20"><path d="M13.5 2.75c.414 0 .75.336.75.75v1.25c0 .414-.336.75-.75.75s-.75-.336-.75-.75v-1.25c0-.414.336-.75.75-.75Z"/><path d="M17.03 4.78c.293-.293.293-.767 0-1.06-.293-.293-.767-.293-1.06 0l-1 1c-.293.293-.293.767 0 1.06.293.293.767.293 1.06 0l1-1Z"/><path d="M4 8.75c0-1.795 1.455-3.25 3.25-3.25h4c.414 0 .75-.336.75-.75s-.336-.75-.75-.75h-4c-2.623 0-4.75 2.127-4.75 4.75v.75c0 2.1 1.362 3.88 3.25 4.508v1.992c0 .283.16.542.413.67.252.127.556.101.783-.067l3.178-2.353h1.626c2.623 0 4.75-2.127 4.75-4.75 0-.414-.336-.75-.75-.75s-.75.336-.75.75c0 1.795-1.455 3.25-3.25 3.25h-1.873c-.161 0-.318.052-.447.147l-2.18 1.614v-1.081c0-.36-.256-.67-.61-.737-1.503-.285-2.64-1.607-2.64-3.193v-.75Z"/><path d="M6.75 7.25c-.414 0-.75.336-.75.75s.336.75.75.75h5.5c.414 0 .75-.336.75-.75s-.336-.75-.75-.75h-5.5Z"/><path d="M6 10.25c0-.414.336-.75.75-.75h3.5c.414 0 .75.336.75.75s-.336.75-.75.75h-3.5c-.414 0-.75-.336-.75-.75Z"/><path d="M17 8c.414 0 .75-.336.75-.75s-.336-.75-.75-.75h-1.25c-.414 0-.75.336-.75.75s.336.75.75.75h1.25Z"/></svg>
